X:1
T:Title
%%score { ( 1 3 5 ) | ( 2 4 ) }
L:1/8
M:4/4
K:Eb
V:1 treble nm="Grand Piano"
V:3 treble 
V:5 treble 
V:2 treble 
V:4 treble 
V:1
 z4 z2[Q:1/4=100] c>c | [GB]4 [FA]2 G>_G | G6 z2 | [FA]4 z4 | F6 z2 | [EG]4 [DF]2 z2 | [CE]4 z4 | %7
 F2 G,2 z2 E>D |[M:3/4] C6 |[M:1/4] z2 |[M:4/4] z4 d2 c>d | e6 z2 | [=Bd]4 z4 | %13
[M:3/4] [EG]6[K:bass] |[M:1/4] z2 |[M:4/4][K:treble] z4 d2 c>d | e6 z2 | [=Bd]4 z4 |[M:3/4] [EG]6 | %19
[M:1/4] F>G |[M:4/4] A2 F2 z2 A>F | G2 E2 z2 G>E | z2 [=B,D]4 z2 |[M:3/4] C6 |[M:1/4] z2 | %25
[M:4/4] A2 F2 z2 A>F | G2 E2 z2 G>E | z2 [=B,D]4 z2 |[M:3/4] C6 |] %29
V:2
 z4 z2 E>F | [C,E,G,]4 [C,F,A,]4 | z2 [E,G,C][E,G,C] [E,G,C]2 z2 | C,2 F,2 [C,E,G,]4 | %4
 z2 F,F, F,2[K:treble] F>F | C,2 E,2 z2 E>D | C,2 E,E, [CE]2 z2 | =B,,2 F,2 F,4 | %8
[M:3/4] C,2 E,2 C,2 |[M:1/4][K:treble] =B>c |[M:4/4][K:bass] =B,,2 z2[K:treble] G2 z2 | %11
 z2 [E,G,]E, E,2[K:treble] c>c | =B,,2 F,2 [E,G,]2 z z/[K:treble] B/ |[M:3/4][K:bass] z2 E,E, E,2 | %14
[M:1/4][K:treble] =B>c |[M:4/4][K:bass] =B,,2 z2[K:treble] G2 z2 | z2 [E,G,]E, E,2[K:treble] c>c | %17
 =B,,2 F,2 [E,G,]2 z z/[K:treble] B/ |[M:3/4][K:bass] z2 E,E, E,2 |[M:1/4] z2 | %20
[M:4/4] C,2 [F,A,C]2 z2 [C,F,A,]2 | C,2 [E,G,C]2 z2 [C,E,G,]2 | =B,,2 F,2 F,2 z2 | %23
[M:3/4] z2 E,E, C,2 |[M:1/4][K:treble] F>G |[M:4/4][K:bass] C,2 [F,A,C]2 z2 [C,F,A,]2 | %26
 C,2 [E,G,C]2 z2 [C,E,G,]2 | =B,,2 F,2 F,2 z2 |[M:3/4] z2 E,E, C,2 |] %29
V:3
 x8 | x8 | z2 EE E2 B>B | z2 A,2 [EG]2 F>=E | z2 A,A, A,2 A>A | z2 G,2 [F,G,]4 | z2 G,G, G2 G>E | %7
 z2 [=B,D]4 z2 |[M:3/4] z2 G,2 z2 |[M:1/4] x2 |[M:4/4] [Gd]4 z4 | z2 [Gc]4 z2 | %12
 z2 G,2 [Gc]2 [A,FA]2 |[M:3/4] z2[K:bass] G,G, G,2 |[M:1/4] x2 |[M:4/4][K:treble] [Gd]4 z4 | %16
 z2 [Gc]4 z2 | z2 G,2 [Gc]2 [A,FA]2 |[M:3/4] z2 G,G, G,2 |[M:1/4] x2 |[M:4/4] x8 | x8 | %22
 F2 G,2 G,2 E>D |[M:3/4] z2 G,G, z2 |[M:1/4] x2 |[M:4/4] x8 | x8 | F2 G,2 G,2 E>D | %28
[M:3/4] z2 G,G, z2 |] %29
V:4
 x8 | x8 | C,6 z2 | x8 | C,6[K:treble] z2 | z4 =B,,4 | z4 [E,G,]4 | x8 |[M:3/4] x6 | %9
[M:1/4][K:treble] x2 |[M:4/4][K:bass] z2 F,4[K:treble] z2 | C,6[K:treble] z2 | %12
 z4 z2 C,2[K:treble] |[M:3/4][K:bass] C,6 |[M:1/4][K:treble] x2 | %15
[M:4/4][K:bass] z2 F,4[K:treble] z2 | C,6[K:treble] z2 | z4 z2 C,2[K:treble] |[M:3/4][K:bass] C,6 | %19
[M:1/4] x2 |[M:4/4] x8 | x8 | x8 |[M:3/4] x6 |[M:1/4][K:treble] x2 |[M:4/4][K:bass] x8 | x8 | x8 | %28
[M:3/4] x6 |] %29
V:5
 x8 | x8 | x8 | x8 | x8 | x8 | x8 | z4 G,4 |[M:3/4] x6 |[M:1/4] x2 |[M:4/4] z2 G,4 z2 | %11
 z2 z G, G,2 e>e | x8 |[M:3/4] x2[K:bass] x4 |[M:1/4] x2 |[M:4/4][K:treble] z2 G,4 z2 | %16
 z2 z G, G,2 e>e | x8 |[M:3/4] x6 |[M:1/4] x2 |[M:4/4] x8 | x8 | x8 |[M:3/4] x6 |[M:1/4] x2 | %25
[M:4/4] x8 | x8 | x8 |[M:3/4] x6 |] %29

